X:1
T:Never Will I Cease to Love Him
T:William Howard Doane
T:Never Will I Cease to Love Him
T:Public Domain
T:Public Domain
C:William Howard Doane
Z:Public Domain
%%score 1 2
L:1/8
M:2/4
K:C
V:1 treble 
V:2 bass 
V:1
 [EG][EG] [CE][DF] | [FA][EG] [EG]2 | [FB]/[FB]/[FB]/[FB]/ [FA][FB] | [Ec]2 [EG]2 | %4
w: 1.~Je- sus washed my|sins a- way,|Bless- èd be His Name for-|ev- er;|
w: 2.~Je- sus’ blood has|made me whole,|Bless- èd be His Name for-|ev- er;|
w: 3.~What a gift of|grace di- vine,|Bless- èd be His Name for-|ev- er;|
w: 4.~There’s a crown laid|up for me,|Bless- èd be His Name for-|ev- er;|
 [EG][EG] [CE][DF] | [FA][EG] [Ec]2 | [Fd]/[Fd]/[Fd]/[Fd]/ [Ec][FB] | [Ec]2 [Ec] z || %8
w: Je- sus taught me|how to pray,|Bless- èd be His Name for-|ev- er.|
w: There is glo- ry|in my soul,|Bless- èd be His Name for-|ev- er.|
w: I am His and|He is mine,|Bless- èd be His Name for-|ev- er.|
w: Soon my Sav- ior|I shall see,|Bless- èd be His Name for-|ev- er.|
"^Refrain" [FA]/[Fc]/[Fc]/[Fc]/ [FB][FA] | [FA] [EG]3 | [FG]/[FB]/[FB]/[FB]/ [FB][FA] | %11
w: |||
w: Ne- ver will I cease to|love Him,|Ne- ver will I cease to|
w: |||
w: |||
 [FA] [EG]3 | [EG]/[Ge]/[Ge]/[Ge]/ [Gd][Gc] | [GB] [FA]2 [^DA] | [EG][EG] [FA][FB] | [Ec]3 z |] %16
w: |||||
w: praise Him;|Ne- ver will I cease to|love Him, Be-|cause He first loved|me.|
w: |||||
w: |||||
V:2
 [C,C][C,C] [C,G,][C,G,] | [C,C][C,C] [C,C]2 | [G,D]/[G,D]/[G,D]/[G,D]/ [G,C][G,,D] | %3
 [C,C]2 [C,C]2 | [C,C][C,C] [C,G,][C,G,] | [C,C][C,C] [C,G,]2 | %6
 [G,B,]/[G,B,]/[G,B,]/[G,B,]/ [G,C][G,D] | [C,C]2 [C,C] z || %8
 [F,C]/[F,A,]/[F,A,]/[F,A,]/ [F,B,][F,C] | [C,C] [C,C]3 | [G,B,]/[G,D]/[G,D]/[G,D]/ [G,D][G,B,] | %11
 [C,C] [C,C]3 | [C,C]/[C,C]/[C,C]/[C,C]/ [D,B,][E,C] | [F,C] [F,C]2 [^F,C] | %14
 [G,C][G,C] [G,B,][G,,D] | [C,C]3 z |] %16

